X: 38
T:Under and Over.1665. See a later one Col.2'. p.49
T:John Malchair's Third Collection of Tunes
%%VWML:Malchair-3619-p39
F:https://www.vwml.org/record/Malchair/3619/p39
F:www.vwml.org/topics/historic-dance-and-tune-books/Malchair
Z:Eric Conran Jan 2020
M:6/4
L:1/4
K:Gdor
G2g f2e|d3c3|B>cd c2B|A3F3|
G2g f2g|a3 d2d|e>fg g^f2|g3-g3||
f2f f>ed|c2c c2A|B>cd c2B|A3F3|
G2g ^f2g|a3d2d|e>fg g^f2|g3-g3||
W:
T:The Temple
T:John Malchair's Third Collection of Tunes
%%VWML:Malchair-3619-p39
F:https://www.vwml.org/record/Malchair/3619/p39
F:www.vwml.org/topics/historic-dance-and-tune-books/Malchair
Z:Eric Conran Jan 2020
M:C|
L:1/4
K:D
d2e2|f>g fe|d>e e>d|eA FA|
d2e2|f>g fe|d/e/d/e/ e>d|!fermata!d4||
f2g2|a>b ag|fd dA|dA/G/ FA|
f2g2|a>b ag|fd dg/f/|e4||
d2e2|f>g fe|de e>d|eA FA|
d2e2|f>g fe|d/e/d/e/ e>d|d4||
AF/G/ Ad|AF/G/ Ad|AF/G/ Ad|c2-c2|
ec/d/ ea|ec/d/ ea|e(d/c/) B>A|A4"Da Capo"||



I:abc-charset utf-8
